X:1
T:Vilnius, 77.77 D
T:Vilnius, 77.77 D
T:Philip Paul Bliss (1838-1876)
T:Public Domain Courtesy of the Cyber Hymnal™
C:Philip Paul Bliss (1838-1876)
Z:Public Domain
Z:Courtesy of the Cyber Hymnal™
%%score ( 1 2 ) ( 3 4 )
L:1/8
Q:1/4=95
M:4/4
K:F
V:1 treble 
V:2 treble 
V:3 bass 
V:4 bass 
V:1
 F>[FG] | [FA]3 [FA] (A>G) (G>A) | F6 [CE]>[CF] | [EG]3 [EG] ([EG]>[^D^F]) ([EG]>[GB]) | %4
 [FA]6 [FA]>[GB] | [Ac]3 [Ac] ([Ac]>[GB]) ([FA]>[GB]) | [Ac]6 [Ac]>[Ad] | %7
 [^Ge]3 [Ge] (e>d) (c>=B) | [Ac]6 [Ec]>[Ec] | [Fc]3 [FA] [FB]2 [Fd]2 | (c4 A2) F>[FG] | %11
 [FA]3 [FA] (A>G) (G>A) | [EG]6 [Ec]>[Ec] | [Fc]3 [FA] [FB]2 [Fd]2 | (c4 A2) F>[FG] | %15
 [FA]3 [FA] (A>G) (G>A) | F6 |] %17
V:2
 F3/2 x/ | x4 E2 E2 | (F4 C2) x2 | x8 | x8 | x8 | x8 | x4 ^G2 G2 | x8 | x8 | F6 F3/2 x/ | %11
 x4 F2 F2 | x8 | x8 | F6 F3/2 x/ | x4 E2 E2 | F6 |] %17
V:3
 [F,A,]>[F,B,] | [F,C]3 [F,C] [C,C]2 [C,B,]2 | [F,A,]6 [C,C]>[C,C] | [C,C]3 [C,C] [C,C]2 [C,C]2 | %4
 [F,C]6 [F,F]>[F,F] | [F,F]3 [F,C] [F,C]2 [F,C]2 | [F,C]6 [F,A,]>[F,A,] | %7
 [E,=B,]3 [E,B,] [C,E]2 (E>D) | [A,C]6 [G,B,]>[G,B,] | [F,A,]3 [F,C] [F,D]2 [F,B,]2 | %10
 (A,4 C2) [F,A,]>[F,B,] | [F,C]3 [F,C] [D,=B,]2 [D,B,]2 | [C,C]6 [C,B,]>[C,B,] | %13
 [F,A,]3 [F,C] [F,D]2 [F,B,]2 | (A,4 C2) [D,=B,]>[D,B,] | [C,C]3 [C,C] [C,C]2 [C,B,]2 | [F,A,]6 |] %17
V:4
 x2 | x8 | x8 | x8 | x8 | x8 | x8 | x6 E,2 | x8 | x8 | F,6 x2 | x8 | x8 | x8 | F,6 x2 | x8 | x6 |] %17

